Adwaita++-Light/panel/16/btsync-gui-11.svg

<svg height="16" width="16" xmlns="http://www.w3.org/2000/svg">
  <path d="m12.949747 12.949746c2.733498-2.733497 2.733499-7.1659949 0-9.8994932-2.733498-2.73349804-7.1659972-2.73349814-9.8994947-.0000002-2.73349754 2.7334985-2.73349845 7.1659984.0000013 9.8994954 2.7334969 2.733498 7.1659964 2.733498 9.8994934-.000002zm-1.414213-1.414212c-1.710494 1.710493-4.3521476 1.922959-6.2935279.636672l-.7775382.777541-.7071092-3.5355331 3.5355341.7071071-.5772859.577285c1.1143493.530105 2.4832847.345143 3.4057131-.577285.503639-.5054163.810651-1.1737916.865931-1.8851577l1.997023-.5358548c.0875 1.426721-.43982 2.8226705-1.44874 3.8352255zm.707107-4.9497471-3.5355343-.7071068.5772863-.577287c-1.11435-.5301042-2.4832848-.3451415-3.4057142.5772867-.503636.505418-.8106501 1.1737914-.8659308 1.8851586l-1.9970221.5358539c-.0874948-1.4267214.4398418-2.8226492 1.4487401-3.8352258 1.710493-1.7104945 4.3521472-1.9229581 6.293526-.6366731l.777541-.7775404z" fill="#444"/>
</svg>

<svg xmlns="http://www.w3.org/2000/svg" width="16" height="16" version="1.1">
 <defs>
  <style id="current-color-scheme" type="text/css">
   .ColorScheme-Text { color:#444444; } .ColorScheme-Highlight { color:#4285f4; }
  </style>
 </defs>
 <path style="fill:currentColor" class="ColorScheme-Text" d="m 12.949747,12.949746 c 2.733498,-2.733497 2.733499,-7.1659949 0,-9.8994932 -2.733498,-2.73349804 -7.1659972,-2.73349814 -9.8994947,-2e-7 -2.73349754,2.7334985 -2.73349845,7.1659984 1.3e-6,9.8994954 2.7334969,2.733498 7.1659964,2.733498 9.8994934,-2e-6 z M 11.535534,11.535534 C 9.82504,13.246027 7.1833864,13.458493 5.2420061,12.172206 L 4.4644679,12.949747 3.7573587,9.4142139 7.2928928,10.121321 6.7156069,10.698606 c 1.1143493,0.530105 2.4832847,0.345143 3.4057131,-0.577285 0.503639,-0.5054163 0.810651,-1.1737916 0.865931,-1.8851577 l 1.997023,-0.5358548 c 0.0875,1.426721 -0.43982,2.8226705 -1.44874,3.8352255 z M 12.242641,6.5857869 8.7071067,5.8786801 9.284393,5.3013931 C 8.170043,4.7712889 6.8011082,4.9562516 5.8786788,5.8786798 5.3750428,6.3840978 5.0680287,7.0524712 5.012748,7.7638384 L 3.0157259,8.2996923 C 2.9282311,6.8729709 3.4555677,5.4770431 4.464466,4.4644665 6.174959,2.753972 8.8166132,2.5415084 10.757992,3.8277934 l 0.777541,-0.7775404 0.707108,3.5355339 z"/>
</svg>
